src/next/cmd/32/dismantle.svg

<svg height="32" viewBox="0 0 32 32" width="32" xmlns="http://www.w3.org/2000/svg" xmlns:xlink="http://www.w3.org/1999/xlink"><linearGradient id="a" gradientTransform="matrix(0 .01735074 .02788228 0 -11.321956 10.191562)" gradientUnits="userSpaceOnUse" x1="399.77466" x2="399.77466" y1="1164.6696" y2="549.06134"><stop offset="0" stop-color="#717174"/><stop offset=".5" stop-color="#9c9ca1"/><stop offset="1" stop-color="#bdbdc2"/></linearGradient><linearGradient id="b" gradientUnits="userSpaceOnUse" x1="11.9887" x2="31.000488" y1="10.505892" y2="10.505892"><stop offset="0" stop-color="#b4b4b6"/><stop offset=".5" stop-color="#9c9ca1"/><stop offset="1" stop-color="#cdcdd1"/></linearGradient><linearGradient id="c" gradientUnits="userSpaceOnUse" x1="15.346144" x2="28.053605" xlink:href="#d" y1="14.540189" y2="2.987951"/><linearGradient id="d"><stop offset="0" stop-color="#fff"/><stop offset=".42597079" stop-color="#fff"/><stop offset=".5892781" stop-color="#e5e5e5"/><stop offset=".80219781" stop-color="#eaeaea"/><stop offset="1" stop-color="#eee"/></linearGradient><linearGradient id="e" gradientUnits="userSpaceOnUse" x1="32.6745" x2="19.967041" xlink:href="#f" y1="5.298398" y2="13.384966"/><linearGradient id="f"><stop offset="0" stop-color="#fff"/><stop offset="1" stop-color="#fff" stop-opacity="0"/></linearGradient><linearGradient id="g" gradientTransform="matrix(0 .14285487 .19047337 0 .381004 10.74621)" gradientUnits="userSpaceOnUse" x1="119.57646" x2="15.999996" xlink:href="#d" y1="23.792561" y2="109.6508"/><linearGradient id="h" gradientTransform="matrix(0 -.34231658 -.42856455 0 26.285355 48.846797)" gradientUnits="userSpaceOnUse" x1="95.954445" x2="74.330322" xlink:href="#f" y1="11.166008" y2="32"/><g stroke-width=".25"><path d="m21.494141 1a9.5058938 9.5058938 0 0 0 -9.50586 9.505859 9.5058938 9.5058938 0 0 0 .017578.494141h.007813a9.5058938 9.5058938 0 0 0 9.480469 9.011719 9.5058938 9.5058938 0 0 0 9.505859-9.50586 9.5058938 9.5058938 0 0 0 -.017578-.49414h-.00586a9.5058938 9.5058938 0 0 0 -9.482421-9.011719z" fill="url(#b)"/><path d="m21.494141 2a8.505311 8.505311 0 0 0 -8.503907 8.505859 8.505311 8.505311 0 0 0 .017578.494141h.00586a8.505311 8.505311 0 0 0 8.480469 8.009766 8.505311 8.505311 0 0 0 8.505859-8.503907 8.505311 8.505311 0 0 0 -.017578-.496093h-.007813a8.505311 8.505311 0 0 0 -8.480468-8.009766z" fill="url(#c)"/><path d="m28.214845 5.2983397c-4.505268 2.3766288-10.250563 5.0212153-15.155763 5.5253913v.176269h7.149902c.438323 0 .791016.303291.791016.680176v5.205566c3.244084-2.42994 6.343173-5.216588 8.910645-7.5424802a8.5053108 8.5053108 0 0 0 -1.6958-4.0449221z" fill="url(#e)" fill-rule="evenodd"/><path d="m3.7910156 11c-.4383227 0-.7910156.302803-.7910156.679688v8.333984 8.30664c0 .376885.3526929.679688.7910156.679688h8.2031254 8.214843c.438323 0 .791016-.302802.791016-.679688v-8.333984-8.30664c0-.376885-.352693-.679688-.791016-.679688h-8.203125z" fill="url(#a)" opacity=".75"/><g fill-rule="evenodd"><path d="m4.3808594 12c-.2110445 0-.3808594.141069-.3808594.316406v7.800782 7.566406c0 .175335.1698149.316406.3808594.316406h7.5058596 7.732422c.211045 0 .380859-.141071.380859-.316406v-7.800782-7.566406c0-.175335-.169814-.316406-.380859-.316406h-7.50586z" fill="url(#g)"/><path d="m20 14c-3.271314.569215-13.313583 2.406496-16 2.682617v9.317383c4.1537237-1.672812 11.827214-4.311217 16-7z" fill="url(#h)"/></g></g></svg>

<?xml version="1.0" encoding="UTF-8" standalone="no"?>
<svg
   xmlns:dc="http://purl.org/dc/elements/1.1/"
   xmlns:cc="http://creativecommons.org/ns#"
   xmlns:rdf="http://www.w3.org/1999/02/22-rdf-syntax-ns#"
   xmlns:svg="http://www.w3.org/2000/svg"
   xmlns="http://www.w3.org/2000/svg"
   xmlns:xlink="http://www.w3.org/1999/xlink"
   xmlns:sodipodi="http://sodipodi.sourceforge.net/DTD/sodipodi-0.dtd"
   xmlns:inkscape="http://www.inkscape.org/namespaces/inkscape"
   height="32"
   viewBox="0 0 32 32"
   width="32"
   version="1.1"
   id="svg52"
   sodipodi:docname="dismantle.svg"
   inkscape:version="0.92.3 (2405546, 2018-03-11)"
   inkscape:export-filename="/home/rizmut/Dokumen/Rizmut/Github/libreoffice-style-karasa-jaga/build/next/cmd/32/dismantle.png"
   inkscape:export-xdpi="96"
   inkscape:export-ydpi="96">
  <metadata
     id="metadata58">
    <rdf:RDF>
      <cc:Work
         rdf:about="">
        <dc:format>image/svg+xml</dc:format>
        <dc:type
           rdf:resource="http://purl.org/dc/dcmitype/StillImage" />
        <dc:title></dc:title>
      </cc:Work>
    </rdf:RDF>
  </metadata>
  <defs
     id="defs56">
    <linearGradient
       inkscape:collect="always"
       xlink:href="#a"
       id="linearGradient870"
       gradientUnits="userSpaceOnUse"
       gradientTransform="matrix(0,0.01735074,0.02788228,0,-11.321956,10.191562)"
       x1="399.77466"
       y1="1164.6696"
       x2="399.77466"
       y2="549.06134" />
    <linearGradient
       inkscape:collect="always"
       xlink:href="#f"
       id="linearGradient887"
       gradientUnits="userSpaceOnUse"
       gradientTransform="scale(0.25)"
       x1="47.9548"
       y1="42.023567"
       x2="124.00195"
       y2="42.023567" />
  </defs>
  <sodipodi:namedview
     pagecolor="#ffffff"
     bordercolor="#666666"
     borderopacity="1"
     objecttolerance="10"
     gridtolerance="10"
     guidetolerance="10"
     inkscape:pageopacity="0"
     inkscape:pageshadow="2"
     inkscape:window-width="1366"
     inkscape:window-height="714"
     id="namedview54"
     showgrid="true"
     inkscape:zoom="10.429825"
     inkscape:cx="14.233916"
     inkscape:cy="16.019649"
     inkscape:window-x="0"
     inkscape:window-y="28"
     inkscape:window-maximized="1"
     inkscape:current-layer="svg52">
    <inkscape:grid
       type="xygrid"
       id="grid868" />
  </sodipodi:namedview>
  <linearGradient
     id="a"
     gradientTransform="matrix(0 .06940294 .11152914 0 -45.287823 40.766246)"
     gradientUnits="userSpaceOnUse"
     x1="399.77466"
     x2="399.77466"
     y1="1164.6696"
     y2="549.06134">
    <stop
       offset="0"
       stop-color="#717174"
       id="stop2" />
    <stop
       offset=".5"
       stop-color="#9c9ca1"
       id="stop4" />
    <stop
       offset="1"
       stop-color="#bdbdc2"
       id="stop6" />
  </linearGradient>
  <linearGradient
     id="b"
     gradientUnits="userSpaceOnUse"
     x1="61.384575"
     x2="112.21442"
     xlink:href="#c"
     y1="58.160755"
     y2="11.951803"
     gradientTransform="scale(0.25)" />
  <linearGradient
     id="c">
    <stop
       offset="0"
       stop-color="#fff"
       id="stop10" />
    <stop
       offset=".42597079"
       stop-color="#fff"
       id="stop12" />
    <stop
       offset=".5892781"
       stop-color="#e5e5e5"
       id="stop14" />
    <stop
       offset=".80219781"
       stop-color="#eaeaea"
       id="stop16" />
    <stop
       offset="1"
       stop-color="#eee"
       id="stop18" />
  </linearGradient>
  <linearGradient
     id="d"
     gradientUnits="userSpaceOnUse"
     x1="130.698"
     x2="79.868164"
     xlink:href="#e"
     y1="21.193592"
     y2="53.539864"
     gradientTransform="scale(0.25)" />
  <linearGradient
     id="e">
    <stop
       offset="0"
       stop-color="#fff"
       id="stop22" />
    <stop
       offset="1"
       stop-color="#fff"
       stop-opacity="0"
       id="stop24" />
  </linearGradient>
  <linearGradient
     id="f"
     gradientUnits="userSpaceOnUse"
     x1="47.9548"
     x2="124.00195"
     y1="42.023567"
     y2="42.023567"
     gradientTransform="scale(0.25)">
    <stop
       offset="0"
       stop-color="#b4b4b6"
       id="stop27" />
    <stop
       offset=".5"
       stop-color="#9c9ca1"
       id="stop29" />
    <stop
       offset="1"
       stop-color="#cdcdd1"
       id="stop31" />
  </linearGradient>
  <linearGradient
     id="g"
     gradientTransform="matrix(0,0.14285487,0.19047337,0,0.38100425,10.74621)"
     gradientUnits="userSpaceOnUse"
     x1="119.57646"
     x2="15.999996"
     xlink:href="#c"
     y1="23.792561"
     y2="109.6508" />
  <linearGradient
     id="h"
     gradientTransform="matrix(0,-0.34231658,-0.42856455,0,26.285355,48.846797)"
     gradientUnits="userSpaceOnUse"
     x1="95.954445"
     x2="74.330322"
     xlink:href="#e"
     y1="11.166008"
     y2="32" />
  <path
     style="fill:url(#linearGradient887);stroke-width:0.25"
     d="M 21.494141 1 A 9.5058938 9.5058938 0 0 0 11.988281 10.505859 A 9.5058938 9.5058938 0 0 0 12.005859 11 L 12.013672 11 A 9.5058938 9.5058938 0 0 0 21.494141 20.011719 A 9.5058938 9.5058938 0 0 0 31 10.505859 A 9.5058938 9.5058938 0 0 0 30.982422 10.011719 L 30.976562 10.011719 A 9.5058938 9.5058938 0 0 0 21.494141 1 z "
     id="path42" />
  <path
     style="fill:url(#b);stroke-width:0.25"
     d="M 21.494141 2 A 8.505311 8.505311 0 0 0 12.990234 10.505859 A 8.505311 8.505311 0 0 0 13.007812 11 L 13.013672 11 A 8.505311 8.505311 0 0 0 21.494141 19.009766 A 8.505311 8.505311 0 0 0 30 10.505859 A 8.505311 8.505311 0 0 0 29.982422 10.009766 L 29.974609 10.009766 A 8.505311 8.505311 0 0 0 21.494141 2 z "
     id="path44" />
  <path
     inkscape:connector-curvature="0"
     style="fill:url(#d);fill-rule:evenodd;stroke-width:0.25"
     id="path46"
     d="M 28.214845,5.2983397 C 23.709577,7.6749685 17.964282,10.319555 13.059082,10.823731 V 11 h 7.149902 C 20.647307,11 21,11.303291 21,11.680176 v 5.205566 c 3.244084,-2.42994 6.343173,-5.216588 8.910645,-7.5424802 a 8.5053108,8.5053108 0 0 0 -1.6958,-4.0449221 z" />
  <path
     style="opacity:0.75;fill:url(#linearGradient870);stroke-width:0.25"
     d="M 3.7910156 11 C 3.3526929 11 3 11.302803 3 11.679688 L 3 20.013672 L 3 28.320312 C 3 28.697197 3.3526929 29 3.7910156 29 L 11.994141 29 L 20.208984 29 C 20.647307 29 21 28.697198 21 28.320312 L 21 19.986328 L 21 11.679688 C 21 11.302803 20.647307 11 20.208984 11 L 12.005859 11 L 3.7910156 11 z "
     id="path36" />
  <path
     style="fill:url(#g);fill-rule:evenodd;stroke-width:0.25"
     d="M 4.3808594 12 C 4.1698149 12 4 12.141069 4 12.316406 L 4 20.117188 L 4 27.683594 C 4 27.858929 4.1698149 28 4.3808594 28 L 11.886719 28 L 19.619141 28 C 19.830186 28 20 27.858929 20 27.683594 L 20 19.882812 L 20 12.316406 C 20 12.141071 19.830186 12 19.619141 12 L 12.113281 12 L 4.3808594 12 z "
     id="path38" />
  <path
     inkscape:connector-curvature="0"
     style="fill:url(#h);fill-rule:evenodd;stroke-width:0.25"
     id="path40"
     d="M 20,14 C 16.728686,14.569215 6.686417,16.406496 4,16.682617 V 26 c 4.1537237,-1.672812 11.827214,-4.311217 16,-7 z"
     sodipodi:nodetypes="ccccc" />
</svg>
